Font-Source/Egyptian2/svg-my/14212.svg

<?xml version="1.0" encoding="UTF-8" standalone="no"?>
<svg
   width="1000"
   height="1000"
   version="1.1"
   id="svg1"
   sodipodi:docname="14212.svg"
   inkscape:version="1.4.2 (f4327f4, 2025-05-13)"
   xmlns:inkscape="http://www.inkscape.org/namespaces/inkscape"
   xmlns:sodipodi="http://sodipodi.sourceforge.net/DTD/sodipodi-0.dtd"
   xmlns="http://www.w3.org/2000/svg"
   xmlns:svg="http://www.w3.org/2000/svg">
  <defs
     id="defs1" />
  <sodipodi:namedview
     id="namedview1"
     pagecolor="#ffffff"
     bordercolor="#666666"
     borderopacity="1.0"
     inkscape:showpageshadow="2"
     inkscape:pageopacity="0.0"
     inkscape:pagecheckerboard="0"
     inkscape:deskcolor="#d1d1d1"
     inkscape:zoom="0.3775"
     inkscape:cx="544.37086"
     inkscape:cy="827.81457"
     inkscape:window-width="1680"
     inkscape:window-height="998"
     inkscape:window-x="-8"
     inkscape:window-y="-8"
     inkscape:window-maximized="1"
     inkscape:current-layer="svg1" />
  <path
     id="path2"
     style="fill:#000000;stroke:none;stroke-width:1"
     d="M 109.97461 0 L 95.482422 68.201172 L 78.431641 46.035156 L 48.59375 71.611328 L 67.349609 93.777344 L 0 96.333984 L 7.671875 120.20508 L 86.103516 115.08984 L 105.71094 137.25586 L 37.509766 140.66406 L 46.888672 164.53516 L 124.4668 157.71484 L 143.22266 179.88086 L 75.021484 184.99609 L 85.251953 207.16016 L 161.97852 202.04688 L 180.73242 224.21094 L 113.38477 229.32617 L 122.76172 250.63867 L 200.3418 246.37695 L 415.93945 494.85742 L 59.675781 899.40234 L 63.085938 815.85742 L 56.265625 809.03711 L 0.8515625 998.29492 L 180.73242 919.86328 L 173.06055 911.33789 L 89.513672 927.53711 L 441.88281 524.75781 L 792.83984 929.24219 L 710.99805 913.04297 L 701.61914 919.86328 L 882.35352 1000 L 827.79102 810.74219 L 819.26758 816.70898 L 822.67773 901.96094 L 467.79297 495.14062 L 685.42188 246.37695 L 764.70508 252.34375 L 774.08398 229.32617 L 705.88281 224.21094 L 723.78516 203.75195 L 800.51172 208.86523 L 811.59375 184.99609 L 744.24609 181.58594 L 763 159.41992 L 839.72656 166.24023 L 849.95703 142.36914 L 780.05078 137.25586 L 800.51172 115.08984 L 878.08984 121.91016 L 887.46875 98.039062 L 819.26758 94.628906 L 838.875 72.462891 L 808.18359 47.740234 L 789.42969 69.90625 L 776.64062 1.7050781 L 756.18164 14.492188 L 770.67383 92.072266 L 751.91797 112.53125 L 739.13086 44.330078 L 716.96484 57.119141 L 733.16211 134.69727 L 713.55469 155.1582 L 701.61914 88.662109 L 679.45508 101.44922 L 694.79883 177.32227 L 676.04492 198.63672 L 661.55078 132.99219 L 641.0918 144.07422 L 657.28906 220.80078 L 441.86523 465.41992 L 228.47461 220.80078 L 245.52344 144.07422 L 223.35938 131.28711 L 210.57031 197.7832 L 191.81641 177.32227 L 208.01367 99.744141 L 185.84766 86.957031 L 173.06055 155.1582 L 154.30469 132.99219 L 168.79883 57.119141 L 147.48438 44.330078 L 133.8457 110.82617 L 116.79492 90.367188 L 130.43555 12.787109 L 109.97461 0 z " />
</svg>

<?xml version="1.0" encoding="UTF-8" standalone="no"?>
<svg
   width="1000"
   height="1000"
   version="1.1"
   id="svg1"
   sodipodi:docname="14212.svg"
   inkscape:version="1.4.2 (f4327f4, 2025-05-13)"
   xmlns:inkscape="http://www.inkscape.org/namespaces/inkscape"
   xmlns:sodipodi="http://sodipodi.sourceforge.net/DTD/sodipodi-0.dtd"
   xmlns="http://www.w3.org/2000/svg"
   xmlns:svg="http://www.w3.org/2000/svg">
  <defs
     id="defs1" />
  <sodipodi:namedview
     id="namedview1"
     pagecolor="#ffffff"
     bordercolor="#666666"
     borderopacity="1.0"
     inkscape:showpageshadow="2"
     inkscape:pageopacity="0.0"
     inkscape:pagecheckerboard="0"
     inkscape:deskcolor="#d1d1d1"
     inkscape:zoom="0.755"
     inkscape:cx="500"
     inkscape:cy="325.16556"
     inkscape:window-width="1680"
     inkscape:window-height="998"
     inkscape:window-x="-8"
     inkscape:window-y="-8"
     inkscape:window-maximized="1"
     inkscape:current-layer="svg1" />
  <path
     style="fill:#000000;stroke:none;stroke-width:1"
     d="M 48.59335,71.61125 67.348679,93.77664 0,96.33418 l 7.6726343,23.87042 78.4313727,-5.11509 19.607843,22.16539 -68.201194,3.41006 9.377665,23.87042 77.578859,-6.82012 18.75533,22.16539 -68.201197,5.11509 10.230179,22.16538 76.726338,-5.11509 18.75533,22.16539 -67.34868,5.11509 9.37767,21.31288 77.57886,-4.26258 592.49787,682.86445 -81.84144,-16.19778 -9.37766,6.82012 180.73316,80.1364 -54.56095,-189.25831 -8.52515,5.9676 3.41006,85.25149 L 228.474,220.80136 245.5243,144.07502 223.35891,131.2873 210.57119,197.78346 191.81586,177.3231 208.01364,99.74424 185.84825,86.95652 173.06053,155.15771 154.3052,132.99233 168.79795,57.1185 147.48508,44.33077 133.84484,110.82694 116.79454,90.36658 130.43478,12.78772 109.97442,0 95.481671,68.20119 78.431373,46.0358 Z M 808.18414,47.74083 789.42882,69.90622 776.64109,1.70503 l -20.46036,12.78772 14.49276,77.57886 -18.75533,20.46036 -12.78772,-68.2012 -22.16539,12.78773 16.19778,77.57886 -19.60784,20.46035 -11.93521,-66.49616 -22.16539,12.78772 15.34527,75.87383 -18.75533,21.31288 -14.49275,-65.64365 -20.46036,11.08269 16.19778,76.72634 -597.612956,678.60188 3.41006,-83.54646 -6.820119,-6.82012 L 0.85251492,998.29497 180.73316,919.8636 173.06053,911.33845 89.514067,927.53623 685.422,246.37681 l 79.28388,5.96761 9.37767,-23.01791 -68.2012,-5.11509 17.90282,-20.46036 76.72634,5.11509 11.08269,-23.87041 -67.34867,-3.41006 18.75532,-22.16539 76.72635,6.82012 10.23018,-23.87042 -69.90623,-5.11509 20.46036,-22.16539 77.57886,6.82012 9.37766,-23.87042 -68.20119,-3.41006 19.60784,-22.16538 z"
     id="path2" />
</svg>
